!!!!SEGMENT: 025-1b-LE-010.krn
!!!COM: F. Chopin
!!!OTL: 10.me ETUDE.
!!!OPS: Op. 25
!!!PTL: Etudes pour le piano
!!!PPR: Lemoine
!!!PPP: Paris
!!!NIFC-rismID: 1001002419
!!!NIFC-shelfmark: PL-Wbfc 4808/n
!!!OMD: [half-note] = 72
!!!OMD: All|o. con fuoco.
**kern	**kern	**dynam	**fing
*part1	*part1	*part1	*
*staff2	*staff1	*	*
*clefF4	*clefG2	*	*
*k[f#c#]	*k[f#c#]	*	*
*b:	*b:	*	*
*M2/2	*M2/2	*	*
*met(c)	*met(c)	*	*
*MM144	*MM144	*	*
=1	=1	=1	=1
*Xtuplet	*Xtuplet	*	*
!	!LO:TX:t=poco\ a\ poco:dur=4qs:problem:text with extention lines	!	!
12FF#L< 12FFF#	(>12f#L 12F#<	.	.
12EE#X 12EEE#X	12e#X 12E#X<	.	.
12FF#J 12FFF#	12f#J 12F#<	.	.
12GGL< 12GGG	12gL 12G<	.	.
12GG#X 12GGG#X	12g#X 12G#X<	.	.
12AAJ 12AAA	12aJ 12A<	.	.
12GG#L< 12GGG#	12g#L 12G#<	.	.
12FF##X 12FFF##X	12f##X 12F##X<	.	.
12GG#J 12GGG#	12g#J 12G#<	.	.
12AAL< 12AAA	12aL 12A<	.	.
12AA#X 12AAA#X	12a#X 12A#X<	.	.
12BBJ 12BBB	12bJ 12B<	.	.
*tuplet	*tuplet	*	*
=2	=2	=2	=2
*Xtuplet	*Xtuplet	*	*
12AA#XL< 12AAA#X	12a#XL 12A#X<	.	.
12GG##X 12GGG##X	12g##X 12G##X<	.	.
12AA#J 12AAA#	12a#J 12A#<	.	.
!	!LO:TX:t=cres-cen:dur=4qs:ext=ud:problem:text with extention lines	!	!
12BB/L 12BBB/	12bL 12B	<	.
12BB#X/ 12BBB#X/	12b#X 12B#X	.	.
12C#/J 12CC#/	12cc#J 12c#	.	.
12B#B/L 12BBB#/	12b#L 12B#	.	.
12AA##X/ 12AAA##X/	12a##X 12A##X	.	.
12BB#/J 12BBB#/	12b#J 12B#	.	.
12C#/L 12CC#/	12cc#L 12c#	.	.
12D/ 12DD/	12dd 12d	.	.
12D#X/J 12DD#X/	12dd#XJ 12d#X	.	.
*tuplet	*tuplet	*	*
!!LO:LB:g=original
=3	=3	=3	=3
*	*	*^	*
*Xtuplet	*Xtuplet	*	*	*
12C##XL 12CC##X	12cc##XL 12c##X	.	.	.
12D#X 12DD#X	12dd#X 12d#X	.	.	.
12EJ 12EE	12eeJ 12e	.	fz	.
12D#L 12DD#	12dd#L 12d#	.	.	.
12E 12EE	12ee 12e	.	.	.
12FnJ 12FFn	12ffnJ 12fn	.	fz	.
12EL 12EE	12eeL 12e	.	.	.
12E#X 12EE#X	12ee#X 12e#X	.	.	.
12F#XJ 12FF#X	12ff#XJ 12f#X	.	fz	.
12E#L 12EE#	12ee#/L 12e#/	.	.	.
12F# 12FF#	12ff# 12f#	.	.	.
12GJ 12GG	12ggJ 12g	.	fz	.
*tuplet	*tuplet	*	*	*
=4	=4	=4	=4	=4
*Xtuplet	*Xtuplet	*	*	*
12F#\L 12FF#\	12ff#/L 12f#/	.	.	.
12F##X 12FF##X	12ff##X 12f##X	.	.	.
12G#yJ 12GG#y	12gg#XJ 12g#X	.	fz	.
12F##\L 12FF##\	12ff##/L 12f##/	.	.	.
12G# 12GG#	12gg# 12g#	.	.	.
12AJ 12AA	12aaJ 12a	.	fz	.
12F##\L 12FF##\	12ff##/L 12f##/	.	.	.
12G# 12GG#	12gg# 12g#	.	.	.
12AJ 12AA	12aaJ 12a	.	fz	.
12G#\L 12GG#\	12gg#/L 12g#/	.	.	.
12A\ 12AA\	12aa 12a	.	.	.
12A#X\J 12AA#X\	12aa#XJ 12a#X)	[	fz	.
*tuplet	*tuplet	*	*	*
*	*	*v	*v	*
=5	=5	=5	=5
*^	*^	*	*
*Xtuplet	*Xtuplet	*Xtuplet	*	*	*
!	!	!LO:TX:t=P:diminuendolike accent:problem	!	!	!
2D	12BL 12BB	2dd	(>12bb/L^< 12b^</	f	.
.	12A#X 12AA#X	.	12aa#X\ 12a#X\	.	.
.	12BJ 12BB	.	12bbJ 12b	.	.
.	12A#L 12AA#	.	12aa#L 12a#	.	.
.	12An 12AAn	.	12aan 12an	.	.
.	12G#XJ 12GG#X	.	12gg#XJ 12g#X)	.	.
2D	12AL 12AA	2dd	(>12aaL^< 12a^<	.	.
.	12G# 12GG#	.	12gg# 12g#	.	.
.	12AJ 12AA	.	12aaJ 12a	.	.
.	12G#L 12GG#	.	12gg#L 12g#	.	.
.	12Gn 12GGn	.	12ggn 12gn	.	.
.	12F#J 12FF#	.	12ff#J 12f#)	.	.
*tuplet	*tuplet	*	*	*	*
!!LO:LB:g=original
=6	=6	=6	=6	=6	=6
*Xtuplet	*Xtuplet	*	*	*	*
4BB	12GL 12GG	(4b	12ggL^< 12g^<	.	.
.	12F# 12FF#	.	12ff# 12f#	.	.
.	12GJ 12GG	.	12ggJ 12g	.	.
4BB	12F#L 12FF#	4b	12ff#L^< 12f#^<	.	.
.	12Fn 12FFn	.	12ffn 12fn	.	.
.	12EJ 12EE	.	12eeJ 12e	.	.
4FF	12D#XL 12DD#X	4f	12dd#XL^< 12d#X^<	.	.
.	12Dn 12DDn	.	12ddn 12dn	.	.
.	12C#J 12CC#	.	12cc#J 12c#	.	.
4BB 4FF 4BBB	4ryy	4b^< 4f^< 4B^<)	4ryy	.	.
*tuplet	*tuplet	*	*	*	*
=7	=7	=7	=7	=7	=7
*Xtuplet	*Xtuplet	*	*	*	*
12BBL 12BBB	(>2GG	(12bL^< 12B^<	(>2g	.	.
12AA#X 12AAA#X	.	12a#X 12A#X	.	.	.
12BBJ 12BBB	.	12bJ 12B	.	.	.
12C#L 12CC#	.	12cc#L 12c#	.	.	.
12D 12DD	.	12dd 12d	.	.	.
12EJ 12EE	.	12eeJ 12e	.	.	.
12DL 12DD	4FF#)	12ddL 12d	4f#)	.	.
12C# 12CC#	.	12cc# 12c#	.	.	.
12BBJ 12BBB	.	12bJ 12B	.	.	.
12AA#XL 12AAA#X	4rBBBByy	12a#XL 12A#X	4rFyy	.	.
12BB 12BBB	.	12b 12B	.	.	.
12C#J 12CC#	.	12cc#J 12c#)	.	.	.
*tuplet	*tuplet	*	*	*	*
=8	=8	=8	=8	=8	=8
*Xtuplet	*Xtuplet	*	*	*	*
12BBL 12BBB	(>2GG	(>12bL^< 12B^<	(>2g	.	.
12AA#X 12AAA#X	.	12a#X 12A#X	.	.	.
12BBJ 12BBB	.	12bJ 12B	.	.	.
12C#L 12CC#	.	12cc#L 12c#	.	.	.
12D 12DD	.	12dd 12d	.	.	.
12EJ 12EE	.	12eeJ 12e	.	.	.
12DL 12DD	4FF#)	12ddL 12d	4f#)	.	.
12C# 12CC#	.	12cc# 12c#	.	.	.
12BBJ 12BBB	.	12bJ 12B	.	.	.
12AA#XL 12AAA#X	4rDDDyy	12a#XL 12A#X	4rDyy	.	.
12BB 12BBB	.	12b 12B	.	.	.
12C#J 12CC#	.	12cc#J 12c#)	.	.	.
*tuplet	*tuplet	*	*	*	*
!!LO:LB:g=original
=9	=9	=9	=9	=9	=9
*Xtuplet	*Xtuplet	*	*	*	*
12DL 12DD	(>2BB-X	(>12ddL^< 12d^<	(>2b-X	.	.
12C# 12CC#	.	12cc# 12c#	.	.	.
12DJ 12DD	.	12ddJ 12d	.	.	.
12EL 12EE	.	12eeL 12e	.	.	.
12Fn 12FFn	.	12ffn 12fn	.	.	.
12GJ 12GG	.	12ggJ 12g	.	.	.
12FL 12FF	4AA)	12ffL 12f	4a)	.	.
12E 12EE	.	12ee 12e	.	.	.
12DJ 12DD	.	12ddJ 12d	.	.	.
12C#L 12CC#	4rFFFyy	12cc#L 12c#	4rFyy	.	.
12D 12DD	.	12dd 12d	.	.	.
12EJ 12EE	.	12eeJ 12e)	.	.	.
*tuplet	*tuplet	*	*	*	*
=10	=10	=10	=10	=10	=10
*Xtuplet	*Xtuplet	*	*	*	*
12DL 12DD	(>2BB-X	(>12ddL^< 12d^<	(>2b-X	.	.
12C# 12CC#	.	12cc# 12c#	.	.	.
12DJ 12DD	.	12ddJ 12d	.	.	.
12EL 12EE	.	12eeL 12e	.	.	.
12Fn 12FFn	.	12ffn 12fn	.	.	.
12GJ 12GG	.	12ggJ 12g	.	.	.
12FL 12FF	4AA)	12ffL 12f	4a)	.	.
12E 12EE	.	12ee 12e	.	.	.
12DJ 12DD	.	12ddJ 12d	.	.	.
12C#L 12CC#	4rFFFyy	12cc#L 12c#	4rFyy	.	.
12D 12DD	.	12dd 12d	.	.	.
12FJ 12FF	.	12ddJ 12d)	.	.	.
*tuplet	*tuplet	*	*	*	*
*v	*v	*	*	*	*
=11	=11	=11	=11	=11
*Xtuplet	*Xtuplet	*	*	*
!	!LO:TX:t=Cres _:problem:dynamics with extention lines 	!	!	!
!	!	!	!LO:HP:i:t=Cres	!
12GL< 12GG	(12eeL^< 12e^<	4cc# 4b-X	<	.
12F# 12FF#	12dd#X 12d#X	.	.	.
12GJ 12GG	12eeJ 12e	.	.	.
12G#XL 12GG#X	12ee#XL> 12e#X	4rAyy	.	.
12A 12AA	12ff# 12f#	.	.	.
12B-XJ 12BB-X	12ggJ 12g	.	.	.
12AL 12AA	12ff#L^< 12f#^<	4dd#X 4ccn	.	.
12G# 12GG#	12ee# 12e#	.	.	.
12AJ 12AA	12ff#J 12f#	.	.	.
12A#XL 12AA#X	12ggL> 12g	4rcyy	.	.
12Bny 12BBny	12gg#X 12g#X	.	.	.
12cnJ 12Cn	12aaJ 12a)	.	.	.
*tuplet	*tuplet	*	*	*
!!LO:LB:g=original
=12	=12	=12	=12	=12
*Xtuplet	*Xtuplet	*Xtuplet	*	*
12c#XL 12C#X	(>12aa#X^<L> 12a#X^<	\4gg 4ee\	.	.
12d 12D	12bb 12b	.	.	.
12d#XJ 12D#X	12cccnJ 12ccn	.	.	.
12eL 12E	12ccc#X^<L> 12cc#X^<	4aa#X\ 4gg\	.	.
12e#X 12E#X	12ddd 12dd	.	.	.
12f#J 12F#	12ddd#XJ 12dd#X	.	.	.
*clefG2	*	*	*	*
*	*8va	*	*	*
12gL 12G	12eee^<\L> 12ee^<\	4ccc#\ 4bb-X\	.	.
12g#X 12G#X	12eee#X 12ee#X	.	.	.
12aJ 12A	12fff#J 12ff#	.	.	.
12a#XL 12A#X	12gggL> 12gg^<	4eeeny\ 4ccc#\	.	.
12b 12B	12ggg 12gg	.	.	.
12cc#J 12c#	12fff#J 12ff#	.	[	.
*tuplet	*tuplet	*	*	*
=13	=13	=13	=13	=13
*^	*	*	*	*
*Xtuplet	*Xtuplet	*Xtuplet	*	*	*
12bL 12B	2d	12bbb^<L 12bb^<	2ddd	.	.
12a#X 12A#X	.	12aaa#X 12aa#X	.	ff	.
12bJ 12B	.	12bbbJ 12bb	.	.	.
12a#L 12A#	.	12aaa#L 12aa#	.	.	.
12an 12An	.	12aaan 12aan	.	.	.
12g#XJ 12G#X	.	12ggg#yJ 12gg#y)	.	.	.
12aL 12A	2d	(12aaa^<L 12aa^<	2ddd	.	.
12g# 12G#	.	12ggg# 12gg#	.	.	.
12aJ 12A	.	12aaaJ 12aa	.	.	.
12g#L 12G#	.	12ggg#L 12gg#	.	.	.
12gn 12Gn	.	12gggn 12ggn	.	.	.
12f#J 12F#	.	12fff#J 12ff#)	.	.	.
*	*	*X8va	*	*	*
*tuplet	*tuplet	*tuplet	*	*	*
*clefF4	*	*	*	*	*
!!LO:PB:g=original
=14	=14	=14	=14	=14	=14
*Xtuplet	*Xtuplet	*Xtuplet	*	*	*
!	!	!LO:TX:a:t=Loco	!	!	!
4B	12gL 12G	(12ggg^<L 12gg^<	4bb	.	.
.	12f# 12F#	12fff# 12ff#	.	.	.
.	12gJ 12G	12gggJ 12gg	.	.	.
4B	12f#L 12F#	12fff#^<L 12ff#^<	4bb	.	.
.	12fn 12Fn	12fffn 12ffn	.	.	.
.	12eJ 12E	12eeeJ 12ee	.	.	.
4F	12d#XL 12D#X	12ddd#X^<L 12dd#X^<	4ff	.	.
.	12dn 12Dn	12dddn 12ddn	.	.	.
.	12c#J 12C#	12ccc#J 12cc#	.	.	.
4rgyy	4B 4F 4BB	4bb^</ 4ff^</ 4b^	4ryy	.	.
*tuplet	*tuplet	*	*	*	*
=15	=15	=15	=15	=15	=15
*	*Xtuplet	*Xtuplet	*	*	*
(2G	12BL 12BB	(>2gg	12bbL 12b	.	.
.	12A#X 12AA#X	.	12aa#X 12a#X	.	.
.	12BJ 12BB	.	12bbJ 12b	.	.
.	12c#L 12C#	.	12ccc#L 12cc#	.	.
.	12d 12D	.	12ddd 12dd	.	.
.	12eJ 12E	.	12eeeJ 12ee	.	.
4F#)	12dL 12D	4ff#)	12dddL 12dd	.	.
.	12c# 12C#	.	12ccc# 12cc#	.	.
.	12BJ 12BB	.	12bbJ 12b	.	.
4reyy	12A#L 12AA#	4rgggyy	12aa#L 12a#	.	.
.	12B 12BB	.	12bb 12b	.	.
.	12c#J 12C#	.	12ccc#J 12cc#)	.	.
*	*tuplet	*	*	*	*
=16	=16	=16	=16	=16	=16
*	*Xtuplet	*Xtuplet	*Xtuplet	*	*
(2G	12BL 12BB	(2gg	(>12bbL 12b	.	.
.	12A#X 12AA#X	.	12aa#X 12a#X	.	.
.	12BJ 12BB	.	12bbJ 12b	.	.
.	12c#L 12C#	.	12ccc#L 12cc#	.	.
.	12d 12D	.	12ddd 12dd	.	.
.	12eJ 12E	.	12eeeJ 12ee	.	.
4F#)	12dL 12D	4ff#)	12dddL 12dd	.	.
.	12c# 12C#	.	12ccc# 12cc#	.	.
.	12BJ 12BB	.	12bbJ 12b	.	.
4reyy	12A#L 12AA#	4rgggyy	12aa#L 12a#	.	.
.	12B 12BB	.	12bb 12b	.	.
.	12c#J 12C#	.	12ccc#J) 12cc#	.	.
*	*tuplet	*tuplet	*tuplet	*	*
!!LO:LB:g=original
=17	=17	=17	=17	=17	=17
*	*Xtuplet	*Xtuplet	*Xtuplet	*	*
2G 2Fn	12BL 12BB	2gg 2ffn	(>12bbL 12b	.	.
.	12A#X 12AA#X	.	12aa#X 12a#X	.	.
.	12BJ 12BB	.	12bbJ 12b	.	.
.	12cnL 12Cn	.	12cccnL 12ccn	.	.
.	12c#X 12C#X	.	12ccc#X 12cc#X	.	.
.	12dJ 12D	.	12dddJ 12dd	.	.
4G 4F	12c#L 12C#	4gg 4ff	12ccc#L 12cc#	.	.
.	12cn 12Cn	.	12cccn 12ccn	.	.
.	12BJ 12BB	.	12bbJ 12b	.	.
4G 4F	12A#L 12AA#	4gg 4ff	12aa#L 12a#	.	.
.	12B 12BB	.	12bb 12b	.	.
.	12c#XJ 12C#X	.	12ccc#XJ 12cc#X)	.	.
*	*tuplet	*tuplet	*tuplet	*	*
=18	=18	=18	=18	=18	=18
*	*Xtuplet	*Xtuplet	*Xtuplet	*	*
4G 4Fn	12BL 12BB	4gg 4ffn	(>12bbL 12b	.	.
.	12A#X 12AA#X	.	12aa#X 12a#X	.	.
.	12BJ 12BB	.	12bbJ 12b	.	.
4rgyy	12cnL 12G 12F 12Cn	4rbbbyy	12cccnL 12gg 12ff 12ccn	.	.
.	12c#X 12C#X	.	12ccc#X 12cc#X	.	.
.	12dJ 12G 12F 12D	.	12dddJ 12gg 12ff 12dd	.	.
4G 4F	12c#L 12C#	4gg 4ffn	12ccc#L 12cc#	.	.
.	12cn 12Cn	.	12cccn 12ccn	.	.
.	12BJ 12BB	.	12bbJ 12b	.	.
4rgyy	12A#L 12AA#	4rgggyy	12aa#L 12a#	.	.
.	12B 12BB	.	12bb 12b	.	.
.	12GJ 12C#X 12BB 12GG	.	12ee#XJ 12cc#X 12b 12e#X)	.	.
*	*tuplet	*tuplet	*tuplet	*	*
=19	=19	=19	=19	=19	=19
*	*Xtuplet	*Xtuplet	*Xtuplet	*	*
2C# 2BB	12F#L 12FF#	2cc# 2b	(>12ff#L 12f#	.	.
.	12E#X 12EE#X	.	12gg 12g	.	.
.	12F#J 12FF#	.	12ff#J 12f#	.	.
.	12GL 12GG	.	12ee#XL 12e#X	.	.
.	12F# 12FF#	.	12ff# 12f#	.	.
.	12E#J 12EE#	.	12ggJ 12g	.	.
4C# 4BB	12F#L 12FF#	4cc# 4b	12ff#L 12f#	.	.
.	12G 12GG	.	12ee# 12e#	.	.
.	12F#J 12FF#	.	12ff#J 12f#	.	.
4C# 4BB	12E#L 12EE#	4cc# 4b	12ggL 12g	.	.
.	12F# 12FF#	.	12ff# 12f#	.	.
.	12GJ 12GG	.	12ee#J 12e#)	.	.
*	*tuplet	*tuplet	*tuplet	*	*
*v	*v	*	*	*	*
*	*v	*v	*	*
!!LO:LB:g=original
=20	=20	=20	=20
*Xtuplet	*Xtuplet	*	*
12F#L 12FF#	(12ff#L 12f#	.	.
12B 12BB	12gg 12g	.	.
12A#XJ 12AA#X	12ff#J 12f#	.	.
12AnL 12AAn	12ee#XL 12e#X	.	.
12A#X 12AA#X	12ff# 12f#	.	.
12BJ 12BB	12ggJ 12g	.	.
12B#XL 12BB#X	12ff#L 12f#	.	.
12c# 12C#	12ee# 12e#	.	.
12dJ 12D	12ff#J 12f#	.	.
12d#XL 12D#X	12ggL 12g	.	.
12e 12E	12ff# 12f#	.	.
12e-XJ 12E-X	12ggJ 12g	.	.
*tuplet	*tuplet	*	*
=21	=21	=21	=21
*Xtuplet	*Xtuplet	*	*
12enL 12En	12ff#L 12f#	.	.
12e-X 12E-X	12gg 12g	.	.
12dJ 12D	12aa-XJ 12a-X	fz	.
12e-L 12E-	12ggL 12g	.	.
12d 12D	12gg 12g#X	.	.
12c#J 12C#	12aanJ 12an	fz	.
12dL 12D	12ggL 12g#	.	.
12c# 12C#	12aa 12a	.	.
12cnJ 12Cn	12bb-XJ 12b-X	fz	.
12c#XL 12C#X	12aaL 12a	.	.
12cn 12Cn	12aa#X 12a#X	.	.
12BJ 12BB	12bb-J 12b-	fz	.
*tuplet	*tuplet	*	*
=22	=22	=22	=22
*Xtuplet	*Xtuplet	*	*
12cnL 12Cn	12aa#XL 12a#X	<	.
12B 12BB	12bb 12b	.	.
12B-XJ 12BB-X	12cccnJ 12ccn	.	.
12AL 12AA	12ccc#XL 12cc#X	.	.
12A-X 12AA-X	12ddd 12dd	.	.
12GJ 12GG	12eee-XJ 12ee-X	.	.
12G-XL 12GG-X	12eeenL 12een	.	.
12Fn 12FFn	12fffny 12ffny	.	.
12EJ 12EE	12fff#XJ 12ff#X	.	.
*	*8va	*8	*
12E-XL 12EE-X	12gggL 12gg	.	.
12D 12DD	12ggg#X 12gg#X	.	.
12C#XJ 12CC#X	12aaa#XJ 12aa#X	[	.
*tuplet	*tuplet	*	*
!!LO:LB:g=original
=23	=23	=23	=23
*Xtuplet	*Xtuplet	*	*
!	!	!LO:DY:rj	!
12BB 12GG#X 12FFn 12BBB	12bbbL 12ggg#X 12fffn 12ddd 12bb	ff	.
*clefG2	*	*	*
12gg#XL 12g#X	12bbb 12bb	.	.
12ggnJ 12gn	12ccccnJ 12cccn	.	.
12ff#L 12f#	12cccc#XL 12ccc#X	.	.
12ee#X 12e#X	12dddd 12ddd	.	.
12gg#XJ 12g#X	12bbbJ 12bb	.	.
12ffn\L 12fn\	12aaa-XL 12aa-X	.	.
12dd 12d	12fffn 12ffn	.	.
12cc#XJ 12c#X	12fff#XJ 12ff#X	.	.
12ccnL 12cn	12gggnyL 12gg	.	.
12b 12B	12aaa- 12aa-	.	.
12ddJ 12d	12fffnJ 12ffn	.	.
*	*X8va	*	*
*tuplet	*tuplet	*	*
=24	=24	=24	=24
*Xtuplet	*Xtuplet	*	*
!	!LO:TX:a:t=Loco	!	!
12bL 12B	12dddL 12dd	.	.
12g#X 12G#X	12bb 12b	.	.
12gnJ 12Gn	12cccnJ 12ccn	.	.
12f#L 12F#	12ccc#XL 12cc#X	.	.
12e#X 12E#X	12ddd 12dd	.	.
12g#XJ 12G#X	12bbJ 12b)	.	.
*clefF4	*	*	*
12cnL 12Cn	(12ggL 12g	.	.
12B 12BB	12aa-X 12a-X	.	.
12dJ 12D	12ffnJ 12fn)	.	.
12F##X\L 12FF##X\	(>12cc#L 12c#	.	.
12E#X 12EE#X	12dd 12d	.	.
12G#XJ 12GG#X	[>12bJ [12B)	.	.
*tuplet	*tuplet	*	*
=25	=25	=25	=25
*Xtuplet	*Xtuplet	*	*
6FF#\ 6FFF#\	(>12b]L 12B]	.	.
.	12f# 12F#<	.	.
12AA#X\ 12AAA#X\	12a#XJ 12A#X<	.	.
12C#\L 12CC#\	12cc#L 12c#	<	.
12AA# 12AAA#	12a# 12A#<	.	.
12DJ 12DD	12ddJ 12d	.	.
12AA#\L 12AAA#\	12a#L 12A#<	.	.
12BB 12BBB	12b 12B<	.	.
12EJ 12EE	12eeJ 12e	.	.
12C#\L 12CC#\	12cc#L 12c#	.	.
12D 12DD	12dd 12d	.	.
12GJ 12GG	12ggJ 12g)	.	.
*tuplet	*tuplet	*	*
!!LO:LB:g=original
=26	=26	=26	=26
*Xtuplet	*Xtuplet	*	*
12E#X\L 12EE#X\	(12ee#XL 12e#X	.	.
12F# 12FF#	12ff# 12f#	.	.
12A#XJ 12AA#X	12aa#XJ 12a#X	.	.
12c#L 12C#	12ccc#L 12cc#	.	.
12A# 12AA#	12aa# 12a#	.	.
12dJ 12D	12dddJ 12dd	.	.
12A#L 12AA#	12aa#L 12a#	.	.
12B 12BB	12bb 12b	.	.
12e#yJ 12E#y	12eeeJ 12ee#	.	.
12c#L 12C#	12ccc#L 12cc#	.	.
12d 12D	12ddd 12dd	.	.
12gJ 12G	12gggJ) 12gg	.	.
*tuplet	*tuplet	*	*
=27	=27	=27	=27
*Xtuplet	*Xtuplet	*	*
*	*8va	*	*
12e#XL 12E#X	(>12eee#XL 12ee#X	.	.
12f# 12F#	12fff# 12ff#	.	.
12a#XJ 12A#X	12aaa#XJ 12aa#X	.	.
*clefG2	*	*	*
12cc#L 12c#	12cccc#L 12ccc#	.	.
12a# 12A#	12aaa# 12aa#	.	.
12ddJ 12d	12ddddJ) 12ddd	.	.
*	*X8va	*	*
*clefF4	*	*	*
!	!LO:TX:a:t=Loco	!	!
2EE#X 2EEE#X	2a##X^< 2f##X^< 2c##X^< 2A##X^<	.	.
*tuplet	*tuplet	*	*
=28	=28	=28	=28
*	*^	*	*
*Xtuplet	*Xtuplet	*Xtuplet	*	*
!	!	!	!LO:DY:rj	!
(12DD##X/L 12DDD##X/	(>12b#XL 12f##X 12B#X	6rDyy	ff	.
12EE#X/ 12EEE#X/	12g##X 12d#X	.	.	.
12FF#/J 12FFF#/)	12a#XJ [<12c#	12A#	.	.
*tuplet	*tuplet	*tuplet	*	*
8AA#X\ 8AAA#X\	8f#y'> 8en 8c#] 8F#<)	2ryy	.	.
8r	8r	.	.	.
4r;>	4r;>	.	.	.
*	*v	*v	*	*
!!LO:PB:g=original
==29||	==29||	==29||	==29||
*k[f#c#g#d#a#]	*k[f#c#g#d#a#]	*	*
*M3/4	*M3/4	*	*
!	!LO:TX:a:B:t=Lento.	!	!
!	!	!LO:DY:rj	!
[>2.e	(>[2.ee^<	p	.
=30	=30	=30	=30
4e]	4ee]	.	.
4f#	4ff#	.	.
4c#	4cc#	.	.
=31	=31	=31	=31
!	!LO:TX:b:i:t=ben legato.	!	!
(>2F# 2BB	8dd#L 8d#	.	.
.	8ee 8e	.	5
.	8dd# 8d#	.	4
.	8cc# 8c#	.	3
*ped	*	*	*
4G#\ 4EE\	8dd# 8d#	.	4
*Xped	*	*	*
.	8eeJ 8e	.	5
=32	=32	=32	=32
*^	*	*	*
*ped	*	*	*	*
4reyy	4A#\ 4E\ 4FF#\	8dd#L 8d#	.	4
*Xped	*	*	*	*
.	.	8cc# 8c#	.	3
2F#/	4rEEyy	8b 8B	.	5
.	.	8cc# 8c#	.	4
.	4BB)	8dd# 8d#	.	5
.	.	8bJ 8B	.	4
=33	=33	=33	=33	=33
4reyy	4r	8dd#L> 8d#	.	3
.	.	8ee 8e	.	4
(>2B	4D#	8ee#X 8e#X	.	5
.	.	8ff# 8f#	.	3
.	4c#) 4En	8aa# 8a#	.	5
.	.	8gg#J 8g#	.	4
*v	*v	*	*	*
=34	=34	=34	=34
4r	8ff#L 8f#	.	3
.	8een 8en	.	5
*ped	*	*	*
(>4A#\ 4E\ 4FF#\	8dd# 8d#	.	4
.	8cc# 8c#	.	3
*Xped	*	*	*
[>4B 4D# 4BB)	8dd# 8d#	.	.
.	8bJ	.	.
=35	=35	=35	=35
4B] 4E#X 4GG#	8cc#L> 8c#	.	3
.	8dd# 8d#	<	5
*	*ped	*	*
4CC#	8cc# 8c#	.	3
!	!LO:TX:a:t=P:słabo widoczne palcowanie w niektórych miejscach:problem	!	!
.	8gg# 8g#	.	5 3
4e#X> 4B	8bb 8b	.	5 4
*	*Xped	*	*
.	8ddd#J 8dd#	.	5
=36	=36	=36	=36
!LO:S:s=2:note:problem:note-level slur	!	!	!
4f#> (>4A# 4F#	8ccc#L> 8cc#	[	4
.	8ddd# 8dd#	.	.
4c# 4F# 4AA#	8ccc# 8cc#	>	4 5
!	!LO:TX:a:t=P:urwany łuk:problem	!	!
.	8aa# 8a#	.	4 5
4d#) 4F# 4BB	8gg# 8g#	.	.
.	8aa#J 8a#	]]	.
!!LO:LB:g=original
=37	=37	=37	=37
4r	8gg#L 8g#	.	4 5
.	8ff# 8f#	.	4 5
(>4B	8dd# 8d#	.	4
.	8ff# 8f#	.	5
4A# 4C#	8dd# 8d#	]	4 5
.	8cc#J 8c#	.	4 5
=38	=38	=38	=38
*^	*^	*	*
*	*	*	*^	*	*
4E)	4C#	4g# 4G#	4ryy	4ryy	.	.
!	!	!LO:TX:a:t=ten	!	!	!	!
4rFyy	2C# 2FF#	2a#	4f#	2A#^<\	.	.
N[4F#/	.	.	4e\)	.	.	.
*	*	*v	*v	*v	*	*
=39	=39	=39	=39	=39
!	!	!LO:TX:i:t=sempre piano	!	!
4ryy	4BB	(>8f#L 8d# 8F#<N]	.	.
.	.	8a# 8A#	.	.
*ped	*	*	*	*
4rAyy	4r	8b 8B	.	.
.	.	8cc# 8c#	.	.
*Xped	*	*	*	*
(>\4G# 4EE\	4ryy	8dd# 8d#	.	.
.	.	8qff# 8qf#/	.	.
*ped	*	*	*	*
.	.	8eeJ 8e	.	.
=40	=40	=40	=40	=40
4A#\ 4E\ 4FF#\	4ryy	8dd#L 8d#	.	.
*Xped	*	*	*	*
.	.	8cc# 8c#	.	.
2F#	4rCCyy	8b 8B	.	.
.	.	8cc# 8c#	.	.
.	4BB)	8dd# 8d#	.	.
.	.	8bJ 8B	.	.
=41	=41	=41	=41	=41
4rcyy	4r	8dd#L> 8d#	.	.
.	.	8ee 8e	.	.
(>2B	4D#	8ee#X 8e#X	.	.
.	.	8ff# 8f#	.	.
.	4c# 4En)	8aa# 8a#	.	.
.	.	8gg#J 8g#	.	.
*v	*v	*	*	*
=42	=42	=42	=42
4r	8ff#L 8f#	.	.
.	8een 8en	.	.
*ped	*	*	*
(>4A#\ 4E\ 4FF#\	8dd# 8d#	.	.
.	8cc# 8c#	.	.
*Xped	*	*	*
4B 4D# 4BB	8dd# 8d#	.	.
.	8bJ	.	.
=43	=43	=43	=43
*^	*	*	*
!	!LO:TX:a:t=Cres _:problem:dynamics with extention lines 	!	!	!
!	!	!	!LO:HP:i:t=Cres	!
4An 4F#	2BB#X	8cc##XL 8c##X	<	.
.	.	8dd# 8d#	.	.
4G#)	.	8ee 8e	.	.
.	.	8dd# 8d#	.	.
4rc	(>4C#	8ff# 8f#	.	.
.	.	8eeJ 8e	.	.
!!LO:LB:g=original
=44	=44	=44	=44	=44
(>4cn 4An	2D#)	8ee#XL> 8e#X	.	.
.	.	8ff# 8f#	.	.
4B)	.	8gg# 8g#	.	.
.	.	8ff# 8f#	.	.
4rc	(>[4En	8aan 8an	.	.
.	.	8gg#J 8g#	.	.
=45	=45	=45	=45	=45
(>4dn 4B	[>2.E#X])	8ff##XL> 8f##X	.	.
.	.	8gg# 8g#	.	.
8c#L	.	8aa#X 8a#X	.	.
8B	.	8gg# 8g#	.	.
8.d	.	8.bb 8.b	.	.
16c#Jk	.	16aa#Jk 16a#	.	.
=46	=46	=46	=46	=46
8c#L	2E#y]	8aa#L> 8a#	.	.
8B	.	8gg# 8g#	.	.
8A#	.	8ff##X 8f##X	.	.
8BJ	.	8gg#J 8g#	.	.
8.dn/)	4ryy	8.bb/ 8.b/)	.	.
16r;	.	16r;	[	.
*v	*v	*	*	*
=47	=47	=47	=47
.	[<8qdd#/	.	.
(<4e>\ 4gn>\	(>8dd#L>] 8ddd#^>	.	.
.	8cc# 8ccc#	.	.
!	!LO:TX:t=dim _:problem:dynamics with extention lines 	!	!
!	!	!LO:HP:i:t=dim	!
8d#>L 8f#>	8b 8bb	>	.
8c##X> 8e#X>	8a# 8aa#	.	.
8d#> 8f#>	8b 8bb	.	.
8B>J 8dn>	8g#J 8gg#	.	.
=48	=48	=48	=48
4en>\ 4c#>\	8aa#L> 8a#	.	.
.	8gg# 8g#	.	.
8c#L 8A#	8ff# 8f#	.	.
8B#X 8G##X	8ee#X 8e#X	.	.
8c# 8A#	8ff# 8f#	.	.
8AnJ 8F#	8dd#J 8d#	.	.
=49	=49	=49	=49
*^	*	*	*
2G#	4d# 4BB#X	8gg#L 8g#	.	.
.	.	8ff# 8f#	.	.
.	4c# 4C#	8ee 8e	.	.
.	.	8dd# 8d#	.	.
4rgyy	4Gn 4E	8ee 8e	.	.
.	.	8cc#J 8c#	]	.
=50	=50	=50	=50	=50
2F#	4FF#)	4a# 4e 4A#	.	.
.	8BB	8b 8d# 8B)	.	.
.	8r	8r	.	.
4r	4r	(>4b#X^< 4B#X^<	.	.
=51	=51	=51	=51	=51
*	*	*^	*	*
(>2F#\ 2AAn\	2ryy	4cc# 4c#M	2rFyy	.	.
.	.	8b#XL 8B#X	.	.	.
!	!LO:TX:a:t=Cres-cen-do:ext=ud:problem:text with extention lines	!	!	!	!
!	!	!	!	!LO:HP:a	!
.	.	8cc# 8c#	.	<	.
[>4An	4FF#	8ee 8e	[>4an	.	.
.	.	8dd#J 8d#	.	.	.
!!LO:LB:g=original
=52	=52	=52	=52	=52	=52
8AnXL]	2GG#	8cc#L 8c#	8anXL]	.	.
8G#	.	8b#X 8B#X	8g#J	.	.
8Gn	.	8a#X 8A#X	2rFyy	.	.
8F#J	.	8b# 8B#	.	.	.
4E)	4C#	8cc# 8c#	.	.	.
.	.	8dd#J 8d#)	.	.	.
=53	=53	=53	=53	=53	=53
(>2An	4Cn	(>8eeL 8e	2rAyy	.	.
.	.	8ff# 8f#	.	.	.
.	2AAn	8dd# 8d#	.	.	.
.	.	8ee 8e	.	.	.
!	!	!	!	!LO:HP:b=2	!
[>4cn	.	8gg# 8g#	[>4ccn	.	.
.	.	8ff#J 8f#	.	.	.
=54	=54	=54	=54	=54	=54
8cnXL]	2BB	8eeL 8e	8ccnXL]	[	.
8B	.	8dd# 8d#	8bJ	.	.
8A#	.	8cc#X 8c#X	2rAyy	.	.
8An	.	8dd# 8d#	.	.	.
8G#	4E	8ee 8e	.	.	.
8AJ)	.	8ff#J) 8f#	.	.	.
=55	=55	=55	=55	=55	=55
8BL	(<2E	(>8gg#L 8a#	2cc##X	.	.
8A#X	.	8ff##X 8f##X	.	.	.
8c#J	.	8aa# 8a#	.	.	.
4B	.	8gg# 8g#	.	.	.
.	[>4D#	8gg# 8g#	4dd#	.	.
8A#	.	8ff##J 8f##	.	.	.
=56	=56	=56	=56	=56	=56
!	!	!	!	!LO:HP:a	!
8d#L	(4D#]	8ggnL 8gn	2cc#	>	.
8An	.	8ff# 8f#	.	.	.
8cnJ	4E-X)	8aan 8an	.	.	.
4B-X	.	8gg 8g	.	.	.
.	4Dn	8gg 8g	4ddn	.	.
8A	.	8ff#J 8f#	.	.	.
=57	=57	=57	=57	=57	=57
8dnL	[2Dn	8ff#L 8f#	4ccn	.	.
8A-XJ	.	8ffnJ 8fn	.	.	.
8A-L	.	4ff 4f	8ccL	.	.
8GnJ	.	.	8bJ	.	.
4G	8DL]	8ffL 8f	4b	.	.
.	[<8C#J	8eeJ 8e	.	.	.
=58	=58	=58	=58	=58	=58
4Gn	8C#]	4ee 4e	8bL	.	.
.	8rBB	.	8a#XJ	.	.
[2F#	4rGG	8eeL 8e	4a#	.	.
.	.	8dd#J 8d#	.	.	.
.	.	8qee/	.	.	.
!	!	!	!LO:TX:t=P:łuk rozpoczyna się w górnym kierunku:problem	!	!
.	4FF#)	8dd#L 8d#	N(<4a#	>	.
.	.	8cc##XJ 8c##X	.	]	.
*v	*v	*	*	*	*
!!LO:LB:g=original
=59	=59	=59	=59	=59
2F#] 2BB	8dd#L 8d#	4b	.	.
.	8ee 8e	.	.	.
.	8dd# 8d#	4a#	.	.
.	8cc# 8c#	.	.	.
*ped	*	*	*	*
\4G# 4EE\	8dd# 8d#	4g#	.	.
*Xped	*	*	*	*
.	8eeJ 8e	.	.	.
=60	=60	=60	=60	=60
*^	*	*	*	*
*ped	*	*	*	*	*
4reyy	4A#\ 4E\ 4FF#\	8dd#L 8d#	4g.#	.	.
*Xped	*	*	*	*	*
.	.	8cc# 8c#	.	.	.
2F#	4rEEyy	8b 8B	.	.	.
.	.	8cc# 8c#	8f#	.	.
.	4BB	8dd# 8d#	4d#\N)	.	.
.	.	8bJ	.	.	.
*	*	*v	*v	*	*
=61	=61	=61	=61	=61
4reyy	4r	8dd#L> 8d#	.	.
.	.	8ee 8e	.	.
(2B	4D#	8ee#X 8e#X	.	.
.	.	8ff# 8f#	.	.
.	4c# 4E)	8aa# 8a#	.	.
.	.	8gg#J 8g#	.	.
*v	*v	*	*	*
=62	=62	=62	=62
4r	8ff#L 8f#	.	.
.	8ee 8e	.	.
*ped	*	*	*
(>\4A# 4E\ 4FF#\	8dd# 8d#	.	.
.	8cc# 8c#	.	.
*Xped	*	*	*
4B 4D# 4BB	8dd# 8d#	.	.
.	8bJ 8B	.	.
=63	=63	=63	=63
*^	*	*	*
(4An 4F#	2BB#X	8cc##XL 8c##X	.	.
!	!LO:TX:a:t=Cres _:problem:dynamics with extention lines 	!	!	!
!	!	!	!LO:HP:i:t=Cres	!
.	.	8dd# 8d#	<	.
4G#))	.	8ee 8e	.	.
.	.	8dd# 8d#	.	.
4rc	(>4C#	8ff# 8f#	.	.
.	.	8eeJ 8e	.	.
=64	=64	=64	=64	=64
(4cn 4An	2D#)	8ee#XL> 8e#X	.	.
.	.	8ff# 8f#	.	.
4B)	.	8gg# 8g#	.	.
.	.	8ff# 8f#	.	.
4rcyy	(>4E	8aan 8an	.	.
.	.	8gg#J 8g#	.	.
=65	=65	=65	=65	=65
!LO:TX:b:t=P:brak początku ligatury:problem	!	!	!	!
(>4dn 4B	[>2.E#X)	8ff##XL> 8f##X	.	.
.	.	8gg# 8g#	.	.
8c#L	.	8aa#X 8a#X	.	.
8B	.	8gg# 8g#	.	.
8.d	.	8.bb 8.b	.	.
16c#Jk	.	16aa#Jk 16a#	.	.
!!LO:PB:g=original
=66	=66	=66	=66	=66
8c#L	2.E#X]	8aa#L> 8a#	.	.
8B	.	8gg# 8g#	.	.
8A#	.	8ff##X 8f##X	.	.
8BJ	.	8gg#J 8g#	.	.
8.dn)	.	8.bb/; 8.b/)	[	.
16rc;	.	16r	.	.
*v	*v	*	*	*
=67	=67	=67	=67
(<4e>\ 4gn>\	((>8dd#L>] 8ddd#	.	.
!	!LO:TX:t=dim _:problem:dynamics with extention lines 	!	!
!	!	!LO:HP:i:t=dim	!
.	8cc# 8ccc#	>	.
8d#>L 8f#>	8b 8bb	.	.
8c##X> 8e#X>	8a# 8aa#	.	.
8d#> 8f#>	8b 8bb	.	.
8B>J 8dn>	8g#J 8gg#	.	.
=68	=68	=68	=68
4en>\ 4c#>\	8aa#L> 8a#	.	.
.	8gg# 8g#	.	.
8c#L 8A#	8ff# 8f#	.	.
8B#X 8G##X	8ee#X 8e#X	.	.
8c# 8A#	8ff# 8f#	.	.
8AnJ 8F#	8dd#J 8d#	.	.
=69	=69	=69	=69
*^	*	*	*
*	*	*^	*	*
2G#	4d# 4BB#X	8gg#/L 8g#/	2ryy	.	.
.	.	8ff# 8f#	.	.	.
.	4c# 4C#	8ee 8e	.	.	.
.	.	8dd# 8d#	.	.	.
4reyy	4Gn 4E	8ee 8e	8ryy	.	.
!	!	!	!LO:N:vis=4	!	!
.	.	8cc#J	8c#	]	.
*	*	*v	*v	*	*
=70	=70	=70	=70	=70
[2F.#	4FF#	4a# 4e 4A#	.	.
.	8BB)	8b 8d# 8B)	.	.
.	8r	8r	.	.
.	4r	(>4b#X 4B#X^<	.	.
=71	=71	=71	=71	=71
*	*	*^	*^	*
!	!	!	!LO:TX:t=Cres _:problem:dynamics with extention lines 	!	!	!
!	!	!	!	!	!LO:HP:i:t=Cres	!
2ryy	(>2F#\] 2AAn\	4cc# 4c#	2rAyy	<	.	.
.	.	8b#XL 8B#X	.	.	.	.
.	.	8cc# 8c#	.	.	.	.
!LO:TX:t=P:dim na środku dolnej pięciolinii:problem	!	!	!	!	!	!
!	!	!	!	!	!LO:HP:b=2	!
[4An	4FF#	8ee 8e	[>4an	.	>	.
.	.	8dd#J 8d#	.	.	.	.
=72	=72	=72	=72	=72	=72	=72
8AnXL]	2GG#	8cc#L 8c#	8anX]L	.	]	.
8G#	.	8b#X 8B#X	8g#J	.	.	.
8Gn	.	8a#X 8A#X	2rDyy	.	.	.
8F#J	.	8b# 8B#	.	.	.	.
4E/) 4C#/	4ryy	8cc# 8c#	.	.	.	.
.	.	8dd#J 8d#	.	.	.	.
*	*	*	*	*v	*v	*
!!LO:LB:g=original
=73	=73	=73	=73	=73	=73
(>2An	4Cn	8eeL 8e	2rAyy	.	.
.	.	8ff# 8f#	.	.	.
.	2AAn	8dd# 8d#	.	.	.
.	.	8ee 8e	.	.	.
[4cn	.	8gg# 8g#	[>4ccn	.	.
.	.	8ff#J 8f#	.	.	.
=74	=74	=74	=74	=74	=74
8cnXL]	2BB	8eeL 8e	8ccnXL]	.	.
8B	.	8dd# 8d#	8bJ	.	.
8A#	.	8cc#X 8c#X	2rAyy	.	.
8An	.	8dd# 8d#	.	.	.
8G#	4E	8ee 8e	.	.	.
8AJ)	.	8ff#J 8f#)	.	.	.
=75	=75	=75	=75	=75	=75
8BL	(<2E	(8gg#L 8g#	2cc##X	.	.
8A#X	.	8ff##X 8f##X	.	.	.
8c#J	.	8aa# 8a#	.	.	.
4B	.	8gg# 8g#	.	.	.
.	[>4D#	8gg# 8g#	4dd#	.	.
8A#	.	8ff##J 8f##	.	[	.
=76	=76	=76	=76	=76	=76
!	!	!	!LO:TX:t=dim _:problem:dynamics with extention lines 	!	!
!	!	!	!	!LO:HP:i:t=dim	!
8d#L	(4D#]	8ggnL 8gn	2cc#	>	.
8An	.	8ff# 8f#	.	.	.
8cnJ	4E-X)	8aan 8an	.	.	.
4B-X	.	8gg#y 8g#y	.	.	.
.	4Dn	8gg# 8g#	4ddn	.	.
8A	.	8ff#J 8f#	.	.	.
=77	=77	=77	=77	=77	=77
8dnL	[2Dn	8ff#L 8f#	4ccn	.	.
8A-XJ	.	8ffnJ 8fn	.	.	.
8A-L	.	4ff 4f	8ccL	.	.
8GnJ	.	.	8bJ	.	.
4G	8DL]	8ffL 8f	4b	.	.
.	[>8C#J	8eeJ 8e	.	.	.
=78	=78	=78	=78	=78	=78
4Gn	8C#]	4ee 4e	8bL	.	.
.	8rBB	.	8a#XJ	.	.
(>2F#	4rGG	8ff#L 8e	4a#	.	.
.	.	8dd#J 8d#	.	.	.
.	.	8qee/	.	.	.
.	4FF#	8dd#L 8d#	(<4a#	]]	.
.	.	8cc##XJ 8c##X^<	.	.	.
*v	*v	*	*	*	*
=79	=79	=79	=79	=79
2F# 2BB))	8dd#L 8d#	4b	.	.
.	8ee 8e	.	.	.
.	8dd# 8d#	4a#	.	.
.	8cc# 8c#	.	.	.
*ped	*	*	*	*
(>4G#\ 4EE\	8dd# 8d#	4g#	.	.
*Xped	*	*	*	*
.	8eeJ 8e	.	.	.
!!LO:LB:g=original
=80	=80	=80	=80	=80
*^	*	*	*	*
!	!LO:TX:b:t=P:brak zakończenia łuku:problem	!	!	!	!
4reyy	4A#\ 4E\ 4FF#\)	8dd#L 8d#	4.g#	.	.
.	.	8cc# 8c#	.	.	.
2F#	4rEEyy	8b 8B	.	.	.
.	.	8cc# 8c#	8f#	.	.
!	!	!	!LO:N:vis=4	!	!
.	4BB)	8dd# 8d#	8d#)	.	.
.	.	8bJ	8ryy	.	.
*	*	*v	*v	*	*
=81	=81	=81	=81	=81
4reyy	4r	8dd#L> 8d#	.	.
.	.	8ee 8e	.	.
(4B	8C##XL	8ee#X 8e#X	.	.
.	8D#J	8ff# 8f#	.	.
8B#XL	4E	8aa# 8a#	.	.
8c#J)	.	8gg#J 8g#	.	.
*v	*v	*	*	*
=82	=82	=82	=82
4r	8ff#L 8f#	.	.
.	8ee 8e	.	.
*ped	*	*	*
4B\ 4E\ 4FF#\	8dd# 8d#	.	.
*Xped	*	*	*
.	8cc# 8c#	.	.
4B 4D# 4BB	8dd# 8d#	.	.
.	8bJ 8B	.	.
=83	=83	=83	=83
*^	*	*	*
(>4Any	2BB#X	8cc##XL 8c##X	.	.
.	.	8dd# 8d#	.	.
!	!LO:TX:a:t=Cres _:problem:dynamics with extention lines 	!	!	!
!	!	!	!LO:HP:i:t=Cres	!
4G#)	.	8ee 8e	<	.
.	.	8dd# 8d#	.	.
4rAyy	(<8BB#L<	8ff# 8f#	.	.
.	8C#J	8eeJ 8e	.	.
=84	=84	=84	=84	=84
(4cn 4An	8C##XL	8ee#XL> 8e#X	.	.
.	8D#J)	8ff# 8f#	.	.
4B)	4r	8gg# 8g#	.	.
.	.	8ff# 8f#	.	.
4rcyy	8D#L	8aan 8an	.	.
.	8EJ	8gg#J 8g#	.	.
=85	=85	=85	=85	=85
(>4dn 4B	[>2.E#X	8ff##XL> 8f##X	.	.
.	.	8gg# 8g#	.	.
8c#L	.	8aa#X 8a#X	.	.
8B	.	8gg# 8g#	.	.
8d	.	8.bb 8.b	.	.
8c#Jk	.	.	.	.
.	.	16aa#Jk 16a#	.	.
=86	=86	=86	=86	=86
8c#L	2E#X]	8aa#L> 8a#	.	.
8B	.	8gg# 8g#	.	.
8A#	.	8ff##X 8f##X	.	.
8BJ	.	8gg#J 8g#	.	.
8.dn/)	8.ryy	8.bb/; 8.b/)	.	.
16rcyy	16rA;>	16r;>	[	.
*v	*v	*	*	*
!!LO:LB:g=original
=87	=87	=87	=87
(<4e>\ 4gn>\	(>8dd#L>] 8ddd#	.	.
.	8cc# 8ccc#	.	.
!	!LO:TX:t=dim _:problem:dynamics with extention lines 	!	!
!	!	!LO:HP:i:t=dim	!
8d#>L 8f#>	8b 8bb	>	.
8c##X> 8e#X>	8a# 8aa#	.	.
8d#> 8f#>	8b 8bb	.	.
8B>J 8dn>	8g#J 8gg#	.	.
=48	=48	=48	=48
4en>\ 4c#>\	8aa#L> 8a#	.	.
.	8gg# 8g#	.	.
8c#L 8A#	8ff# 8f#	.	.
8B#X 8G##X	8ee#X 8e#X	.	.
8c# 8A#	8ff# 8f#	.	.
8AnJ 8F#	8dd#J 8d#	.	.
=89	=89	=89	=89
*^	*	*	*
2G#	4d# 4BB#X	8gg#L 8g#	.	.
.	.	8ff# 8f#	.	.
.	4c# 4C#	8ee 8e	.	.
.	.	8dd# 8d#	.	.
4reyy	4Gn 4E)	8ee 8e	.	.
.	.	8cc#J 8c#)	]	.
=90	=90	=90	=90	=90
!LO:TX:b:i:t=sotto voce	!	!	!	!
8GnXL	[>2.FF#	[2.a#X [<2.e [2.A#X	.	.
8F#	.	.	.	.
8E	.	.	.	.
8D#	.	.	.	.
8E	.	.	.	.
8C#J	.	.	.	.
=91	=91	=91	=91	=91
8GnL	2.FF#_>	(>2.a#X_ 2.e_< 2.A#X_	.	.
8F#	.	.	.	.
8E	.	.	.	.
8D#	.	.	.	.
8E	.	.	.	.
8C#J	.	.	.	.
=92	=92	=92	=92	=92
8GnL	2.FF#_>	2.a#X] 2.e_> 2.A#X]	.	.
8F#	.	.	.	.
8E	.	.	.	.
8D#	.	.	.	.
8E	.	.	.	.
8C#J	.	.	.	.
=93	=93	=93	=93	=93
*	*	*^	*	*
8GnL	2.FF#]	[2b 2B	2.e]	.	.
8F#	.	.	.	.	.
8E	.	.	.	.	.
8D#	.	.	.	.	.
8E	.	4cc#/ 4c#/	.	.	.
8C#J	.	.	.	.	.
*	*	*v	*v	*	*
!!LO:LB:g=original
=94	=94	=94	=94	=94
8GnL	[>2.FF#	[2cc# [<2a#X [2c#	.	.
8F#	.	.	.	.
8E	.	.	.	.
8D#	.	.	.	.
8E	.	8.cc#]L 8.a#] 8.c#]	.	.
8C#J	.	.	.	.
.	.	16ddnJk 16b 16dn	.	.
=95	=95	=95	=95	=95
8GnL	[>2.FF#]	2.cc# 2.a# 2.c#	.	.
8F#	.	.	.	.
8E	.	.	.	.
8D#	.	.	.	.
8E	.	.	.	.
8C#J	.	.	.	.
=96	=96	=96	=96	=96
.	.	(>8qA#X/	.	.
8GnL	[>2.FF#]	2.cc#) 2.a#X 2.e 2.A#	.	.
8F#	.	.	.	.
8E	.	.	.	.
8D#	.	.	.	.
8E	.	.	.	.
8C#J	.	.	.	.
=97	=97	=97	=97	=97
*	*	*^	*	*
8GnL	[>2.FF#]	2ddn 2a#X	8e\	.	.
8F#	.	.	4.f#\	.	.
8E	.	.	.	.	.
8D#	.	.	.	.	.
8E	.	4ee/ 4gn/	4ryy	.	.
8C#J	.	.	.	.	.
*	*	*v	*v	*	*
=98	=98	=98	=98	=98
.	.	8qc#/	.	.
8GnL	[>2.FF#]	[2.ee [>2.a#X 2.c#	.	.
8F#	.	.	.	.
8E	.	.	.	.
8D#	.	.	.	.
8E	.	.	.	.
8C#J	.	.	.	.
=99	=99	=99	=99	=99
*	*	*^	*	*
8GnL	2.FF#]	[2.ccc#	2.ee_> 2.a#X_>	.	.
8F#	.	.	.	.	.
8E	.	.	.	.	.
8D#	.	.	.	.	.
8E	.	.	.	.	.
8C#J	.	.	.	.	.
*v	*v	*	*	*	*
=100	=100	=100	=100	=100
(<8GnL 8GGn	4ccc#])	4ee] 4a#X]	.	.
!	!LO:TX:t=Cres _:problem:dynamics with extention lines 	!	!	!
!	!	!	!LO:HP:i:t=Cres	!
8F# 8FF#	.	.	<	.
8E 8EE	4reeeyy	4r	.	.
8D# 8DD#	.	.	.	.
8E 8EE	4reeeyy	4r	.	.
8C#J 8CC#	.	.	.	.
*	*v	*v	*	*
=101	=101	=101	=101
8GnL 8GGn	2.rdd	.	.
8F# 8FF#	.	.	.
8E 8EE	.	.	.
8D# 8DD#	.	.	.
8E 8EE	.	.	.
8C#J 8CC#)	.	[	.
!!LO:PB:g=original
=102	=102	=102	=102
8GnL 8GGn	(>8ggnL 8gn	.	.
8F# 8FF#	8ff# 8f#	.	.
!LO:TX:a:i:t=accelerando.	!	!	!
8E 8EE	8ee 8e	.	.
8D# 8DD#	8dd# 8d#	.	.
8E 8EE	8ee 8e	.	.
8C#J 8CC#	8cc#J 8c#	.	.
=103	=103	=103	=103
8GnL 8GGn	8ggnL 8gn	.	.
8F# 8FF#	8ff# 8f#	.	.
8E 8EE	8ee 8e	.	.
8D# 8DD#	8dd# 8d#	.	.
8E 8EE	8ee 8e	.	.
8C#J 8CC#	8cc#J) 8c#	.	.
*kcancel	*	*	*
==104|!	==104|!	==104|!	==104|!
*k[f#c#]	*k[f#c#]	*	*
*M2/2	*M2/2	*	*
*met(c)	*met(c)	*	*
*Xtuplet	*Xtuplet	*	*
!	!LO:TX:a:B:t=Tempo I°.	!	!
!	!	!LO:DY:rj	!
(>\12GL 12GG\	(>12gg^<L 12g^<	f	.
12F# 12FF#	12ff# 12f#	.	.
12EJ 12EE	12eeJ 12e	.	.
12D#X\L 12DD#X\	12dd#X\L 12d#X\	.	.
12E 12EE	12ee 12e	.	.
12C#J 12CC#)	12cc#J) 12c#	.	.
(>\12G#XL 12GG#X\	(12gg#X^<L 12g#X^<	.	.
12F# 12FF#	12ff# 12f#	.	.
12EJ 12EE	12eeJ 12e	.	.
12D#\L 12DD#\	12dd#\L 12d#\	.	.
12E 12EE	12ee 12e	.	.
12C#J 12CC#)	12cc#J 12c#)	.	.
*tuplet	*tuplet	*	*
=105	=105	=105	=105
*Xtuplet	*Xtuplet	*	*
12A\L 12AA\	N(>12aa^<L 12a^<	.	.
12G#X 12GG#X	12gg#X 12g#X	.	.
12GnJ 12GGn	12ggnJ 12gn	.	.
12F#\L 12FF#\	12ff#L 12f#	.	.
12G 12GG	12gg 12g	.	.
12D#XJ 12DD#X	12dd#XJ 12d#X	.	.
12E\L 12EE\	12eeL< 12e	.	.
12E#X 12EE#X	12ee#X 12e#X	.	.
12F#J 12FF#	12ff#^<J 12f#^<	.	.
12E#\L 12EE#\	12ee#L 12e#	<	.
12F# 12FF#	12ff# 12f#	.	.
12F##XJ 12FF##X	12ff##XJ 12f##X	.	.
*tuplet	*tuplet	*	*
!!LO:LB:g=original
=106	=106	=106	=106
*Xtuplet	*Xtuplet	*	*
12E#X\L 12EE#X\	12ee#XL 12e#X	.	.
12F# 12FF#	12ff# 12f#	.	.
12F##J 12FF##	12f##^<J 12ff##^<	.	.
12F#\L 12FF#\	12ff#L 12f#	.	.
12F##X 12FF##X	12ff##X 12f##X	.	.
12G#XJ 12GG#X	12gg#X^<J 12g#X^<	.	.
12F##\L 12FF##\	12ff##L 12f##	.	.
12G# 12GG#	12gg# 12g#	.	.
12AJ 12AA	12aa^<J 12a^<	.	.
12G#\L 12GG#\	12gg#L 12g#	.	.
12A 12AA	12aa 12a	.	.
12A#XJ 12AA#X	12aa#X^<J 12a#X^<	.	.
*tuplet	*tuplet	*	*
=107	=107	=107	=107
*^	*^	*	*
*	*Xtuplet	*Xtuplet	*Xtuplet	*	*
!	!	!LO:TX:t=P:diminuendolike accent:problem	!	!	!
2D	12BL 12BB	2dd 2ff#	12bb^<L 12b^<	ff	.
.	12A#X 12AA#X	.	12aa# 12a#	.	.
.	12BJ 12BB	.	12bbJ 12b	.	.
.	12A#L 12AA#	.	12aa#yL 12a#y	.	.
.	12An 12AAn	.	12aan 12an	.	.
.	12G#XJ 12GG#X	.	12gg#XJ 12g#X	.	.
2D	12AL 12AA	2dd 2ff#	12aa^<L 12a^<	.	.
.	12G# 12GG#	.	12gg# 12g#	.	.
.	12AJ 12AA	.	12aaJ 12a	.	.
.	12G#L 12GG#	.	12gg#L 12g#	.	.
.	12Gn 12GGn	.	12ggn 12gn	.	.
.	12F#J 12FF#	.	12ff#J 12f#	.	.
*	*tuplet	*tuplet	*tuplet	*	*
=108	=108	=108	=108	=108	=108
*	*Xtuplet	*Xtuplet	*Xtuplet	*	*
4BB	12GL 12GG	4b	12gg^<L 12g^<	.	.
.	12F# 12FF#	.	12ff# 12f#	.	.
.	12GJ 12GG	.	12ggJ 12g	.	.
4BB	12F#L 12FF#	4b	12ff#^<L 12f#^<	.	.
.	12Fn 12FFn	.	12ffn 12fn	.	.
.	12EJ 12EE	.	12eeJ 12e	.	.
4FF/	12D#X\L 12DD#X\	4a	12dd#X^<L 12d#X^<	.	.
.	12Dn 12DDn	.	12ddn 12dn	.	.
.	12C#J 12CC#	.	12cc#J 12c#	.	.
4BB\ 4FF\ 4BBB\	4ryy	4b^<\ 4f^<\ 4B^<\N)	4ryy	.	.
*	*tuplet	*tuplet	*tuplet	*	*
!!LO:LB:g=original
=109	=109	=109	=109	=109	=109
*Xtuplet	*Xtuplet	*Xtuplet	*	*	*
12BBL 12BBB	(>2GG	(12b^<L 12B^<	(>2g	.	.
12AA#X 12AAA#X	.	12a#X 12A#X	.	.	.
12BBJ 12BBB	.	12bJ 12B	.	.	.
12C#L 12CC#	.	12cc#L 12c#	.	.	.
12D 12DD	.	12dd 12d	.	.	.
12EJ 12EE	.	12eeJ 12e	.	.	.
12DL 12DD	4FF#\)	12ddL 12d	4f#)	.	.
12C# 12CC#	.	12cc# 12c#	.	.	.
12BBJ 12BBB	.	12bJ 12B	.	.	.
12AA#L 12AAA#	4rBBBByy	12a#L 12A#	4rFyy	.	.
12BB 12BBB	.	12b 12B	.	.	.
12C#J 12CC#	.	12cc#J 12c#	.	.	.
*tuplet	*tuplet	*tuplet	*	*	*
=110	=110	=110	=110	=110	=110
*Xtuplet	*Xtuplet	*Xtuplet	*	*	*
12BBL 12BBB	(>2GG	12b^<L 12B^<	(>2g	.	.
12AA#X 12AAA#X	.	12a#X 12A#X	.	.	.
12BBJ 12BBB	.	12bJ 12B	.	.	.
12C#L 12CC#	.	12cc#L 12c#	.	.	.
12D 12DD	.	12dd 12d	.	.	.
12EJ 12EE	.	12eeJ 12e	.	.	.
12DL 12DD	4FF#)	12ddL 12d	4f#)	.	.
12C# 12CC#	.	12cc# 12c#	.	.	.
12BBJ 12BBB	.	12bJ 12B	.	.	.
12AA#L 12AAA#	4rDDDyy	12a#L 12A#	4rDyy	.	.
12BB 12BBB	.	12b 12B	.	.	.
12C#J 12CC#	.	12cc#J 12c#)	.	.	.
*tuplet	*tuplet	*tuplet	*	*	*
=111	=111	=111	=111	=111	=111
*Xtuplet	*Xtuplet	*Xtuplet	*	*	*
12DL 12DD	(>2BB-X	(12dd^<L 12d^<	(>2b-X	.	.
12C# 12CC#	.	12cc# 12c#	.	.	.
12DJ 12DD	.	12ddJ 12d	.	.	.
12EL 12EE	.	12eeL 12e	.	.	.
12Fn 12FFn	.	12ffn 12fn	.	.	.
12GJ 12GG	.	12ggJ 12g	.	.	.
12FL 12FF	4AA)	12ffL 12f	4a)	.	.
12E 12EE	.	12ee 12e	.	.	.
12DJ 12DD	.	12ddJ 12d	.	.	.
12C#L 12CC#	4rDDDyy	12cc#L 12c#	4rFyy	.	.
12D 12DD	.	12dd 12d	.	.	.
12EJ 12EE	.	12eeJ 12e)	.	.	.
*tuplet	*tuplet	*tuplet	*	*	*
!!LO:LB:g=original
=112	=112	=112	=112	=112	=112
*Xtuplet	*Xtuplet	*Xtuplet	*	*	*
12DL 12DD	(>2BB-X	(>12dd^<L 12d^<	(>2b-X	.	.
12C# 12CC#	.	12cc# 12c#	.	.	.
12DJ 12DD	.	12ddJ 12d	.	.	.
12EL 12EE	.	12eeL 12e	.	.	.
12Fn 12FFn	.	12ffn 12fn	.	.	.
12GJ 12GG	.	12ggJ 12g	.	.	.
12FL 12FF	4AA)	12ff^<L 12f^<	4a)	.	.
12E 12EE	.	12ee 12e	.	.	.
12DJ 12DD	.	12ddJ 12d	.	.	.
12FL 12FF	4D-X	12ff^<L 12f^<	4dd-X	.	.
12G 12GG	.	12gg 12g	.	.	.
12B-XJ 12BB-X	.	12bb-XJ 12b-X	.	.	.
*tuplet	*tuplet	*tuplet	*	*	*
=113	=113	=113	=113	=113	=113
*Xtuplet	*Xtuplet	*Xtuplet	*	*	*
12A-XL 12AA-X	4Cn	12aa-X^<L 12a-X^<	4ccn	.	.
12G 12GG	.	12gg 12g	.	.	.
12FnJ 12FFn	.	12ffnJ 12fn	.	.	.
12G#XL 12GG#X	4E	12gg#X^<L 12g#X^<	4ee	.	.
12A#X 12AA#X	.	12aa#X 12a#X	.	.	.
12c#XJ 12C#X	.	12ccc#XJ 12cc#	.	.	.
12BL 12BB	4D#X	12bb^<L 12b^<	4dd#X	.	.
12A# 12AA#	.	12aa# 12a#	.	.	.
12G#J 12GG#	.	12gg#J 12g#	.	.	.
12BL 12BB	4Gn	12bb^<L 12b^<	4ggn	.	.
12c# 12C#	.	12ccc# 12cc#	.	.	.
12eJ 12E	.	12eeeJ 12ee)	.	.	.
*tuplet	*tuplet	*tuplet	*	*	*
=114	=114	=114	=114	=114	=114
*Xtuplet	*Xtuplet	*Xtuplet	*	*	*
12dL 12D	4F#	(12ddd^<L 12dd^<	4ff#	.	.
12c# 12C#	.	12ccc# 12cc#	.	.	.
12BJ 12BB	.	12bbJ 12b	.	.	.
12A#XL 12AA#X	2.rCCyy	12aa#X/L 12ee#X/ 12cc##X/ 12a#X^</	2.rcyy	.	.
12G#X 12GG#X	.	12bb 12b	.	<	.
12E#XJ 12EE#X	.	12dddJ 12dd	.	.	.
*	*	*8va	*	*	*
12DL 12DD	.	12eee#X/L 12ee#X/	.	.	.
12C# 12CC#	.	12aaa# 12aa#	.	.	.
12BBJ 12BBB	.	12bbbJ 12bb	.	.	.
12AAnL 12AAAn	.	12bbb/L 12bb/	.	[	.
12GG#X 12GGG#X	.	12bbb 12bb	.	.	.
12GGnJ 12GGGn	.	12bbbJ 12bb	.	.	.
*tuplet	*tuplet	*tuplet	*	*	*
*v	*v	*	*	*	*
!!LO:LB:g=original
=115	=115	=115	=115	=115
*Xtuplet	*Xtuplet	*	*	*
!	!LO:TX:b:i:t=il piu forte possibile	!	!	!
12FF#L 12FFF#	12bbb^<L 12bb^<	4fff#\ 4ddd\	.	.
12AA#X 12AAA#X	12aaa#X 12aa#X	.	.	.
12BBJ 12BBB	12bbbJ 12bb	.	.	.
12BB#XL 12BBB#X	12aaa#L> 12aa#	4rcyy	.	.
12C# 12CC#	12aaan 12aan	.	.	.
12DJ 12DD	12ggg#XJ 12gg#X	.	.	.
12C#L 12CC#	12aaa^<L 12aa^<	4eeeny\	.	.
12BB# 12BBB#	12ggg# 12gg#	.	.	.
12C#J 12CC#	12aaaJ 12aa	.	.	.
12DL 12DD	12aaa-XL> 12aa-X	4rAyy	.	.
12E-X 12EE-X	12gggn 12ggn	.	.	.
12EnJ 12EEn	12fff#J 12ff#	.	.	.
*tuplet	*tuplet	*	*	*
=116	=116	=116	=116	=116
*	*	*^	*	*
*Xtuplet	*Xtuplet	*	*	*	*
!	!	!LO:TX:t=P:półnuty w taktach 116-117 za ósemkami:problem	!	!	!
12E-XL 12EE-X	12ggg^<L 12gg^<	2ddd-X\ 2bb-X\	2rFyy	.	.
12Dn 12DDn	12fff# 12ff#	.	.	.	.
12E-J 12EE-	12gggJ 12gg	.	.	.	.
12EnL 12EEn	12ggg-XL 12gg-X	.	.	.	.
12Fn 12FFn	12fffn 12ffn	.	.	.	.
12G-XJ 12GG-X	12eeeJ 12ee	.	.	.	.
12FL 12FF	12fff^<L 12ff^<	4ddd-/	2bb-\	.	.
12E 12EE	12eee 12ee	.	.	.	.
12FJ 12FF	12fffJ 12ff	.	.	.	.
12G-XL 12GG-X	12fff-XL 12ff-X	4rAyy	.	.	.
12Gn 12GGn	12eee 12ee	.	.	.	.
12A-XJ 12AA-X	12dddnJ 12dnd	.	.	.	.
*tuplet	*tuplet	*	*	*	*
=117	=117	=117	=117	=117	=117
*Xtuplet	*Xtuplet	*	*Xtuplet	*	*
12GL< 12GG	4ccc#/	2aa#X^<\	12eeeL 12ee/	.	.
12F# 12FF#	.	.	12ddd#X 12dd#X/	.	.
12GJ 12GG	.	.	12eeeJ 12ee/	.	.
12G#XL 12GG#X	2.rbbbyy	.	12ddd#L 12dd#/	.	.
12A 12AA	.	.	12dddn 12ddn/	.	.
12A#XJ 12AA#X	.	.	12ccc#J 12cc#/	.	.
*	*	*X8va	*	*	*
!	!	!	!LO:TX:a:t=Loco	!	!
12BL 12BB	.	2gg#X\ 2ee#X\^<	12dddL 12dd\	.	.
12A# 12AA#	.	.	12ccc# 12cc#\	.	.
12BJ 12BB	.	.	12dddJ 12dd\	.	.
12B#XL 12BB#X	.	.	12ccc#L 12cc#\	.	.
12c# 12C#	.	.	12cccn 12ccn\	.	.
12dJ 12D	.	.	12bbnJ 12bn\	.	.
*tuplet	*tuplet	*	*tuplet	*	*
*	*v	*v	*v	*	*
=118	=118	=118	=118
2f# 2c# 2F#	2bb 2ff# 2cc# 2b	.	.
2F# 2C# 2FF#	2aa#X 2ff# 2cc# 2a#X	.	.
=119	=119	=119	=119
1BB 1FF# 1BBB;	1bb 1ff# 1dd 1b;)	.	.
==	==	==	==
*-	*-	*-	*-
!!title: @{OTL}; @{OPS} @{ONM} publisher: @{PPR}
!!!RDF**kern: > = above
!!!RDF**kern: < = below
!!!RDF**dynam: < = "Cres",fontstyle="italic"
!!!RDF**dynam: > = "dim",fontstyle="italic"
!!!RDF**kern: N = linked
!!!ENC: Jędrzej Mróz
!!!END: 2018-10-25
!!!EED: Mateusz Mrugas
!!!EST: revision finished 2018-10-30
!!!EED2: Antoni Szymański
!!!EST2: revision finished 2019-10-19
!!!rism-genre: Etude
!!!rism-key: B minor
!!!rism-opus: op. 25, no. 10
!!!rism-title: Etude in B minor op. 25, no. 10
!!!rism-permalink: https://opac.rism.info/search?id=1001002419&View=rism
!!!rism-773a-OPR: 1001002277
!!!rism-parent-permalink: https://opac.rism.info/search?id=1001002277&View=rism
